assets/images/main-section/circle.svg

<svg width="145" height="146" viewBox="0 0 145 146" fill="none" xmlns="http://www.w3.org/2000/svg">
<path d="M62.3648 145.681L63.1128 128.122C58.8652 127.362 54.7194 126.115 50.7578 124.405L40.9638 140.234C40.9638 140.234 34.7268 138.088 25.6698 129.469C25.6698 129.469 24.4318 128.631 14.7388 118.538L27.9298 106.426C24.6614 102.084 22.0376 97.2923 20.1398 92.1998L2.26478 95.4338C2.26478 95.4338 -0.313223 89.3648 0.031777 76.8668C0.031777 76.8668 -0.173223 75.3868 0.840777 61.4298L17.3918 63.0058C18.0471 59.118 19.1099 55.31 20.5628 51.6448L5.37878 42.2498C5.37878 42.2498 7.52278 36.0148 16.1438 26.9558C16.1438 26.9558 16.9798 25.7198 27.0728 16.0268L38.1358 28.0738C42.6122 24.5372 47.5988 21.6996 52.9258 19.6578L49.0798 3.32878C49.0798 3.32878 55.0058 0.434778 67.5058 0.125778C67.5058 0.125778 68.9728 -0.157222 82.9628 0.125778L82.2578 16.6698C87.0639 17.4487 91.7483 18.8498 96.1928 20.8378L104.367 7.62878C104.367 7.62878 110.602 9.77478 119.659 18.3938C119.659 18.3938 120.897 19.2318 130.59 29.3228L119.242 39.7438C122.092 43.7502 124.407 48.1122 126.126 52.7188L141.087 49.1998C141.087 49.1998 143.981 55.1258 144.287 67.6268C144.287 67.6268 144.57 69.0918 144.287 83.0838L128.798 82.4238C127.983 87.0106 126.602 91.4783 124.684 95.7238L138.84 104.484C138.84 104.484 136.696 110.719 128.075 119.778C128.075 119.778 127.239 121.016 117.146 130.707L105.952 118.517C101.747 121.521 97.1501 123.932 92.2888 125.684L96.2438 142.484C96.2438 142.484 90.3188 145.376 77.8188 145.684C76.0784 145.822 74.3318 145.864 72.5868 145.81C70.2998 145.807 67.0278 145.776 62.3648 145.681Z" fill="#E4E8EE"/>
<path d="M73.139 108.45C93.0085 108.45 109.116 92.3426 109.116 72.4731C109.116 52.6035 93.0085 36.4961 73.139 36.4961C53.2694 36.4961 37.162 52.6035 37.162 72.4731C37.162 92.3426 53.2694 108.45 73.139 108.45Z" fill="white"/>
<path d="M73.139 98.1711C87.3316 98.1711 98.837 86.6658 98.837 72.4731C98.837 58.2805 87.3316 46.7751 73.139 46.7751C58.9464 46.7751 47.441 58.2805 47.441 72.4731C47.441 86.6658 58.9464 98.1711 73.139 98.1711Z" fill="#E4E8EE"/>
</svg>

<svg id="그룹_163" data-name="그룹 163" xmlns="http://www.w3.org/2000/svg" width="144.416" height="145.807" viewBox="0 0 144.416 145.807">
  <g id="그룹_9" data-name="그룹 9" transform="translate(0 0)">
    <path id="합치기_1" data-name="합치기 1" d="M62.365,145.681l.748-17.559a56.094,56.094,0,0,1-12.355-3.717l-9.794,15.829s-6.237-2.146-15.294-10.765c0,0-1.238-.838-10.931-10.931L27.93,106.426A56.411,56.411,0,0,1,20.14,92.2L2.265,95.434S-.313,89.365.032,76.867c0,0-.205-1.48.809-15.437l16.551,1.576a56.16,56.16,0,0,1,3.171-11.361L5.379,42.25s2.144-6.235,10.765-15.294c0,0,.836-1.236,10.929-10.929L38.136,28.074a56.449,56.449,0,0,1,14.79-8.416L49.08,3.329S55.006.435,67.506.126c0,0,1.467-.283,15.457,0L82.258,16.67a56.113,56.113,0,0,1,13.935,4.168l8.174-13.209s6.235,2.146,15.292,10.765c0,0,1.238.838,10.931,10.929L119.242,39.744a56.393,56.393,0,0,1,6.884,12.975L141.087,49.2s2.894,5.926,3.2,18.427c0,0,.283,1.465,0,15.457l-15.489-.66a56.15,56.15,0,0,1-4.114,13.3l14.156,8.76s-2.144,6.235-10.765,15.294c0,0-.836,1.238-10.929,10.929l-11.194-12.19a56.367,56.367,0,0,1-13.663,7.167l3.955,16.8s-5.925,2.892-18.425,3.2a47.3,47.3,0,0,1-5.232.126C70.3,145.807,67.028,145.776,62.365,145.681Z" transform="translate(0 0)" fill="#eeeef8"/>
    <g id="그룹_4" data-name="그룹 4" transform="translate(37.162 36.496)">
      <circle id="타원_3" data-name="타원 3" cx="35.977" cy="35.977" r="35.977" fill="#fff"/>
      <circle id="타원_4" data-name="타원 4" cx="25.698" cy="25.698" r="25.698" transform="translate(10.279 10.279)" fill="#eeeef8"/>
    </g>
  </g>
</svg>
